frontend/public/luts/film-print.cube
# Film print emulation — authored for Vijey Textile / Ammalu Tex
# Lifted cool toe, filmic S-curve, warm shoulder, chroma falloff at extremes.
LUT_3D_SIZE 17
DOMAIN_MIN 0.0 0.0 0.0
DOMAIN_MAX 1.0 1.0 1.0
0.016990 0.019971 0.027424
0.016990 0.019971 0.027424
0.029565 0.020805 0.028298
0.092548 0.024496 0.032168
0.159064 0.027628 0.035457
0.228870 0.030209 0.038170
0.301645 0.032259 0.040323
0.376996 0.033805 0.041940
0.454473 0.034883 0.043055
0.533585 0.035536 0.043710
0.613818 0.035813 0.043952
0.694656 0.035768 0.043836
0.775602 0.035453 0.043414
0.856200 0.034923 0.042742
0.936046 0.034227 0.041872
0.950608 0.034087 0.041691
0.950608 0.034087 0.041691
0.016990 0.019971 0.027424
0.016990 0.019971 0.027424
0.029565 0.020805 0.028298
0.092548 0.024496 0.032168
0.159064 0.027628 0.035457
0.228870 0.030209 0.038170
0.301645 0.032259 0.040323
0.376996 0.033805 0.041940
0.454473 0.034883 0.043055
0.533585 0.035536 0.043710
0.613818 0.035813 0.043952
0.694656 0.035768 0.043836
0.775602 0.035453 0.043414
0.856200 0.034923 0.042742
0.936046 0.034227 0.041872
0.950608 0.034087 0.041691
0.950608 0.034087 0.041691
0.019628 0.034518 0.030240
0.019628 0.034518 0.030240
0.032330 0.035325 0.031019
0.095895 0.038895 0.034450
0.162936 0.041920 0.037321
0.233206 0.044412 0.039643
0.306381 0.046388 0.041433
0.382065 0.047878 0.042716
0.459810 0.048916 0.043528
0.539122 0.049546 0.043911
0.619491 0.049817 0.043913
0.700404 0.049781 0.043588
0.781367 0.049489 0.042988
0.861927 0.048995 0.042166
0.941687 0.048347 0.041175
0.956027 0.048220 0.040976
0.956027 0.048220 0.040976
0.028598 0.107348 0.039825
0.028598 0.107348 0.039825
0.041888 0.108028 0.040208
0.108137 0.111026 0.041784
0.177582 0.113553 0.042918
0.249962 0.115624 0.043626
0.324940 0.117260 0.043936
0.402113 0.118489 0.043880
0.481030 0.119348 0.043497
0.561202 0.119878 0.042832
0.642127 0.120125 0.041933
0.723306 0.120137 0.040849
0.804264 0.119960 0.039628
0.884572 0.119642 0.038316
0.963857 0.119223 0.036955
0.976944 0.119152 0.036716
0.976944 0.119152 0.036716
0.032345 0.183857 0.043697
0.032345 0.183857 0.043697
0.046175 0.184417 0.043777
0.114872 0.186873 0.043956
0.186489 0.188931 0.043810
0.260751 0.190607 0.043363
0.337311 0.191926 0.042648
0.415762 0.192917 0.041701
0.495652 0.193615 0.040564
0.576498 0.194061 0.039281
0.657810 0.194296 0.037896
0.739106 0.194363 0.036454
0.819933 0.194304 0.034994
0.899884 0.194158 0.033552
0.978615 0.193961 0.032161
0.990147 0.193940 0.031943
0.990147 0.193940 0.031943
0.032351 0.263279 0.043241
0.032351 0.263279 0.043241
0.046667 0.263724 0.043111
0.117557 0.265673 0.042343
0.191096 0.267294 0.041366
0.266998 0.268607 0.040209
0.344910 0.269637 0.038908
0.424422 0.270414 0.037500
0.505084 0.270972 0.036027
0.586424 0.271350 0.034527
0.667966 0.271584 0.033039
0.749246 0.271713 0.031600
0.829838 0.271771 0.030238
0.909363 0.271791 0.028978
0.987507 0.271799 0.027837
0.997181 0.271818 0.027673
0.997181 0.271818 0.027673
0.030132 0.344773 0.039910
0.030132 0.344773 0.039910
0.044878 0.345114 0.039659
0.117688 0.346597 0.038374
0.192887 0.347819 0.036990
0.270178 0.348804 0.035539
0.349205 0.349578 0.034056
0.429560 0.350169 0.032577
0.510799 0.350612 0.031137
0.592464 0.350939 0.029769
0.674098 0.351183 0.028501
0.755263 0.351377 0.027355
0.835561 0.351546 0.026347
0.914649 0.351716 0.025483
0.992250 0.351901 0.024763
0.999765 0.351949 0.024653
0.999765 0.351949 0.024653
0.027162 0.427477 0.035146
0.027162 0.427477 0.035146
0.042276 0.427724 0.034856
0.116720 0.428789 0.033442
0.193302 0.429660 0.032028
0.271724 0.430360 0.030645
0.351628 0.430916 0.029323
0.432612 0.431356 0.028092
0.514247 0.431710 0.026976
0.596092 0.432006 0.025993
0.677719 0.432272 0.025154
0.758725 0.432529 0.024459
0.838759 0.432794 0.023894
0.917546 0.433075 0.023416
0.994848 0.433378 0.023020
0.999907 0.433440 0.022930
0.999907 0.433440 0.022930
0.024758 0.510557 0.030267
0.024758 0.510557 0.030267
0.040176 0.510722 0.030007
0.115950 0.511429 0.028785
0.193629 0.512005 0.027641
0.272916 0.512475 0.026599
0.353458 0.512862 0.025678
0.434868 0.513193 0.024889
0.516740 0.513493 0.024234
0.598668 0.513784 0.023694
0.680279 0.514081 0.023224
0.761196 0.514394 0.022873
0.841043 0.514738 0.022710
0.919472 0.515132 0.022787
0.996181 0.515598 0.023143
0.998442 0.515672 0.023064
0.998442 0.515672 0.023064
0.023938 0.593275 0.026328
0.023938 0.593275 0.026328
0.039591 0.593375 0.026145
0.116368 0.593802 0.025325
0.194837 0.594161 0.024618
0.274706 0.594474 0.024025
0.355636 0.594767 0.023520
0.437276 0.595059 0.023080
0.519272 0.595350 0.022787
0.601223 0.595653 0.022710
0.682707 0.595985 0.022910
0.763304 0.596370 0.023440
0.842614 0.596831 0.024343
0.920276 0.597393 0.025658
0.995162 0.598075 0.027383
0.995159 0.598152 0.027265
0.995159 0.598152 0.027265
0.025202 0.675098 0.023884
0.025202 0.675098 0.023884
0.041005 0.675157 0.023784
0.118369 0.675434 0.023326
0.197259 0.675696 0.022948
0.277455 0.675936 0.022732
0.358653 0.676162 0.022744
0.440480 0.676389 0.023052
0.522521 0.676636 0.023720
0.604331 0.676930 0.024805
0.685457 0.677298 0.026362
0.765459 0.677770 0.028436
0.843922 0.678375 0.031063
0.920480 0.679140 0.034270
0.990706 0.680053 0.037811
0.990702 0.680138 0.037688
0.990702 0.680138 0.037688
0.028270 0.755809 0.022711
0.028270 0.755809 0.022711
0.044179 0.755839 0.022705
0.122078 0.755960 0.022825
0.201486 0.756050 0.023242
0.282115 0.756126 0.024025
0.363607 0.756208 0.025242
0.445551 0.756323 0.026961
0.527497 0.756502 0.029247
0.608973 0.756778 0.032156
0.689506 0.757186 0.035737
0.768640 0.757759 0.040029
0.845956 0.758530 0.045058
0.921082 0.759526 0.050838
0.986169 0.760675 0.056587
0.986166 0.760766 0.056466
0.986166 0.760766 0.056466
0.034484 0.834565 0.024230
0.034484 0.834565 0.024230
0.050550 0.834538 0.024450
0.129150 0.834390 0.025779
0.209133 0.834230 0.027608
0.290174 0.834084 0.030015
0.371880 0.833982 0.033073
0.453809 0.833961 0.036855
0.535483 0.834058 0.041423
0.616410 0.834312 0.046833
0.696101 0.834764 0.053127
0.774091 0.835451 0.060332
0.849957 0.836405 0.068464
0.923333 0.837658 0.077523
0.982901 0.839033 0.085764
0.982899 0.839130 0.085650
0.982899 0.839130 0.085650
0.045698 0.910347 0.030427
0.045698 0.910347 0.030427
0.061930 0.910248 0.030992
0.141240 0.909770 0.034119
0.221756 0.909311 0.037970
0.303121 0.908906 0.042629
0.384911 0.908594 0.048175
0.466658 0.908418 0.054683
0.547859 0.908424 0.062215
0.628007 0.908655 0.070819
0.706600 0.909156 0.080528
0.783167 0.909967 0.091358
0.857287 0.911123 0.103307
0.928596 0.912652 0.116360
0.982372 0.914233 0.127247
0.982374 0.914335 0.127147
0.982374 0.914335 0.127147
0.063528 0.982272 0.043088
0.063528 0.982272 0.043088
0.079919 0.982092 0.044119
0.159882 0.981240 0.049639
0.240838 0.980447 0.056127
0.322400 0.979756 0.063674
0.404115 0.979215 0.072364
0.485491 0.978873 0.082271
0.566006 0.978781 0.093454
0.645135 0.978989 0.105951
0.722370 0.979545 0.119785
0.797237 0.980491 0.134954
0.869316 0.981862 0.151439
0.938254 0.983686 0.169203
0.986075 0.985441 0.182739
0.986083 0.985545 0.182663
0.986083 0.985545 0.182663
0.065987 0.988721 0.044414
0.065987 0.988721 0.044414
0.082372 0.988453 0.045470
0.162288 0.987172 0.051111
0.243169 0.985940 0.057702
0.324625 0.984801 0.065329
0.406211 0.983804 0.074072
0.487435 0.982998 0.083997
0.567784 0.982435 0.095155
0.646739 0.982167 0.107579
0.723798 0.982241 0.121285
0.798495 0.982700 0.136266
0.870421 0.983579 0.152498
0.939229 0.984907 0.169942
0.986134 0.986134 0.182811
0.986133 0.986133 0.182631
0.986133 0.986133 0.182631
0.065987 0.988721 0.044414
0.065987 0.988721 0.044414
0.082372 0.988453 0.045470
0.162288 0.987172 0.051111
0.243169 0.985940 0.057702
0.324625 0.984801 0.065329
0.406211 0.983804 0.074072
0.487435 0.982998 0.083997
0.567784 0.982435 0.095155
0.646739 0.982167 0.107579
0.723798 0.982241 0.121285
0.798495 0.982700 0.136266
0.870421 0.983579 0.152498
0.939229 0.984907 0.169942
0.986134 0.986134 0.182811
0.986133 0.986133 0.182631
0.986133 0.986133 0.182631
0.016990 0.019971 0.027424
0.016990 0.019971 0.027424
0.029565 0.020805 0.028298
0.092548 0.024496 0.032168
0.159064 0.027628 0.035457
0.228870 0.030209 0.038170
0.301645 0.032259 0.040323
0.376996 0.033805 0.041940
0.454473 0.034883 0.043055
0.533585 0.035536 0.043710
0.613818 0.035813 0.043952
0.694656 0.035768 0.043836
0.775602 0.035453 0.043414
0.856200 0.034923 0.042742
0.936046 0.034227 0.041872
0.950608 0.034087 0.041691
0.950608 0.034087 0.041691
0.016990 0.019971 0.027424
0.016990 0.019971 0.027424
0.029565 0.020805 0.028298
0.092548 0.024496 0.032168
0.159064 0.027628 0.035457
0.228870 0.030209 0.038170
0.301645 0.032259 0.040323
0.376996 0.033805 0.041940
0.454473 0.034883 0.043055
0.533585 0.035536 0.043710
0.613818 0.035813 0.043952
0.694656 0.035768 0.043836
0.775602 0.035453 0.043414
0.856200 0.034923 0.042742
0.936046 0.034227 0.041872
0.950608 0.034087 0.041691
0.950608 0.034087 0.041691
0.019628 0.034518 0.030240
0.019628 0.034518 0.030240
0.032330 0.035325 0.031019
0.095895 0.038895 0.034450
0.162936 0.041920 0.037321
0.233206 0.044412 0.039643
0.306381 0.046388 0.041433
0.382065 0.047878 0.042716
0.459810 0.048916 0.043528
0.539122 0.049546 0.043911
0.619491 0.049817 0.043913
0.700404 0.049781 0.043588
0.781367 0.049489 0.042988
0.861927 0.048995 0.042166
0.941687 0.048347 0.041175
0.956027 0.048220 0.040976
0.956027 0.048220 0.040976
0.028598 0.107348 0.039825
0.028598 0.107348 0.039825
0.041888 0.108028 0.040208
0.108137 0.111026 0.041784
0.177582 0.113553 0.042918
0.249962 0.115624 0.043626
0.324940 0.117260 0.043936
0.402113 0.118489 0.043880
0.481030 0.119348 0.043497
0.561202 0.119878 0.042832
0.642127 0.120125 0.041933
0.723306 0.120137 0.040849
0.804264 0.119960 0.039628
0.884572 0.119642 0.038316
0.963857 0.119223 0.036955
0.976944 0.119152 0.036716
0.976944 0.119152 0.036716
0.032345 0.183857 0.043697
0.032345 0.183857 0.043697
0.046175 0.184417 0.043777
0.114872 0.186873 0.043956
0.186489 0.188931 0.043810
0.260751 0.190607 0.043363
0.337311 0.191926 0.042648
0.415762 0.192917 0.041701
0.495652 0.193615 0.040564
0.576498 0.194061 0.039281
0.657810 0.194296 0.037896
0.739106 0.194363 0.036454
0.819933 0.194304 0.034994
0.899884 0.194158 0.033552
0.978615 0.193961 0.032161
0.990147 0.193940 0.031943
0.990147 0.193940 0.031943
0.032351 0.263279 0.043241
0.032351 0.263279 0.043241
0.046667 0.263724 0.043111
0.117557 0.265673 0.042343
0.191096 0.267294 0.041366
0.266998 0.268607 0.040209
0.344910 0.269637 0.038908
0.424422 0.270414 0.037500
0.505084 0.270972 0.036027
0.586424 0.271350 0.034527
0.667966 0.271584 0.033039
0.749246 0.271713 0.031600
0.829838 0.271771 0.030238
0.909363 0.271791 0.028978
0.987507 0.271799 0.027837
0.997181 0.271818 0.027673
0.997181 0.271818 0.027673
0.030132 0.344773 0.039910
0.030132 0.344773 0.039910
0.044878 0.345114 0.039659
0.117688 0.346597 0.038374
0.192887 0.347819 0.036990
0.270178 0.348804 0.035539
0.349205 0.349578 0.034056
0.429560 0.350169 0.032577
0.510799 0.350612 0.031137
0.592464 0.350939 0.029769
0.674098 0.351183 0.028501
0.755263 0.351377 0.027355
0.835561 0.351546 0.026347
0.914649 0.351716 0.025483
0.992250 0.351901 0.024763
0.999765 0.351949 0.024653
0.999765 0.351949 0.024653
0.027162 0.427477 0.035146
0.027162 0.427477 0.035146
0.042276 0.427724 0.034856
0.116720 0.428789 0.033442
0.193302 0.429660 0.032028
0.271724 0.430360 0.030645
0.351628 0.430916 0.029323
0.432612 0.431356 0.028092
0.514247 0.431710 0.026976
0.596092 0.432006 0.025993
0.677719 0.432272 0.025154
0.758725 0.432529 0.024459
0.838759 0.432794 0.023894
0.917546 0.433075 0.023416
0.994848 0.433378 0.023020
0.999907 0.433440 0.022930
0.999907 0.433440 0.022930
0.024758 0.510557 0.030267
0.024758 0.510557 0.030267
0.040176 0.510722 0.030007
0.115950 0.511429 0.028785
0.193629 0.512005 0.027641
0.272916 0.512475 0.026599
0.353458 0.512862 0.025678
0.434868 0.513193 0.024889
0.516740 0.513493 0.024234
0.598668 0.513784 0.023694
0.680279 0.514081 0.023224
0.761196 0.514394 0.022873
0.841043 0.514738 0.022710
0.919472 0.515132 0.022787
0.996181 0.515598 0.023143
0.998442 0.515672 0.023064
0.998442 0.515672 0.023064
0.023938 0.593275 0.026328
0.023938 0.593275 0.026328
0.039591 0.593375 0.026145
0.116368 0.593802 0.025325
0.194837 0.594161 0.024618
0.274706 0.594474 0.024025
0.355636 0.594767 0.023520
0.437276 0.595059 0.023080
0.519272 0.595350 0.022787
0.601223 0.595653 0.022710
0.682707 0.595985 0.022910
0.763304 0.596370 0.023440
0.842614 0.596831 0.024343
0.920276 0.597393 0.025658
0.995162 0.598075 0.027383
0.995159 0.598152 0.027265
0.995159 0.598152 0.027265
0.025202 0.675098 0.023884
0.025202 0.675098 0.023884
0.041005 0.675157 0.023784
0.118369 0.675434 0.023326
0.197259 0.675696 0.022948
0.277455 0.675936 0.022732
0.358653 0.676162 0.022744
0.440480 0.676389 0.023052
0.522521 0.676636 0.023720
0.604331 0.676930 0.024805
0.685457 0.677298 0.026362
0.765459 0.677770 0.028436
0.843922 0.678375 0.031063
0.920480 0.679140 0.034270
0.990706 0.680053 0.037811
0.990702 0.680138 0.037688
0.990702 0.680138 0.037688
0.028270 0.755809 0.022711
0.028270 0.755809 0.022711
0.044179 0.755839 0.022705
0.122078 0.755960 0.022825
0.201486 0.756050 0.023242
0.282115 0.756126 0.024025
0.363607 0.756208 0.025242
0.445551 0.756323 0.026961
0.527497 0.756502 0.029247
0.608973 0.756778 0.032156
0.689506 0.757186 0.035737
0.768640 0.757759 0.040029
0.845956 0.758530 0.045058
0.921082 0.759526 0.050838
0.986169 0.760675 0.056587
0.986166 0.760766 0.056466
0.986166 0.760766 0.056466
0.034484 0.834565 0.024230
0.034484 0.834565 0.024230
0.050550 0.834538 0.024450
0.129150 0.834390 0.025779
0.209133 0.834230 0.027608
0.290174 0.834084 0.030015
0.371880 0.833982 0.033073
0.453809 0.833961 0.036855
0.535483 0.834058 0.041423
0.616410 0.834312 0.046833
0.696101 0.834764 0.053127
0.774091 0.835451 0.060332
0.849957 0.836405 0.068464
0.923333 0.837658 0.077523
0.982901 0.839033 0.085764
0.982899 0.839130 0.085650
0.982899 0.839130 0.085650
0.045698 0.910347 0.030427
0.045698 0.910347 0.030427
0.061930 0.910248 0.030992
0.141240 0.909770 0.034119
0.221756 0.909311 0.037970
0.303121 0.908906 0.042629
0.384911 0.908594 0.048175
0.466658 0.908418 0.054683
0.547859 0.908424 0.062215
0.628007 0.908655 0.070819
0.706600 0.909156 0.080528
0.783167 0.909967 0.091358
0.857287 0.911123 0.103307
0.928596 0.912652 0.116360
0.982372 0.914233 0.127247
0.982374 0.914335 0.127147
0.982374 0.914335 0.127147
0.063528 0.982272 0.043088
0.063528 0.982272 0.043088
0.079919 0.982092 0.044119
0.159882 0.981240 0.049639
0.240838 0.980447 0.056127
0.322400 0.979756 0.063674
0.404115 0.979215 0.072364
0.485491 0.978873 0.082271
0.566006 0.978781 0.093454
0.645135 0.978989 0.105951
0.722370 0.979545 0.119785
0.797237 0.980491 0.134954
0.869316 0.981862 0.151439
0.938254 0.983686 0.169203
0.986075 0.985441 0.182739
0.986083 0.985545 0.182663
0.986083 0.985545 0.182663
0.065987 0.988721 0.044414
0.065987 0.988721 0.044414
0.082372 0.988453 0.045470
0.162288 0.987172 0.051111
0.243169 0.985940 0.057702
0.324625 0.984801 0.065329
0.406211 0.983804 0.074072
0.487435 0.982998 0.083997
0.567784 0.982435 0.095155
0.646739 0.982167 0.107579
0.723798 0.982241 0.121285
0.798495 0.982700 0.136266
0.870421 0.983579 0.152498
0.939229 0.984907 0.169942
0.986134 0.986134 0.182811
0.986133 0.986133 0.182631
0.986133 0.986133 0.182631
0.065987 0.988721 0.044414
0.065987 0.988721 0.044414
0.082372 0.988453 0.045470
0.162288 0.987172 0.051111
0.243169 0.985940 0.057702
0.324625 0.984801 0.065329
0.406211 0.983804 0.074072
0.487435 0.982998 0.083997
0.567784 0.982435 0.095155
0.646739 0.982167 0.107579
0.723798 0.982241 0.121285
0.798495 0.982700 0.136266
0.870421 0.983579 0.152498
0.939229 0.984907 0.169942
0.986134 0.986134 0.182811
0.986133 0.986133 0.182631
0.986133 0.986133 0.182631
0.017268 0.020253 0.039265
0.017268 0.020253 0.039265
0.029855 0.021078 0.040194
0.092896 0.024726 0.044328
0.159466 0.027817 0.047873
0.229319 0.030360 0.050834
0.302134 0.032375 0.053225
0.377519 0.033889 0.055070
0.455023 0.034937 0.056401
0.534155 0.035565 0.057260
0.614402 0.035820 0.057694
0.695248 0.035755 0.057755
0.776196 0.035424 0.057498
0.856790 0.034880 0.056978
0.936628 0.034174 0.056247
0.951169 0.034033 0.056090
0.951169 0.034033 0.056090
0.017268 0.020253 0.039265
0.017268 0.020253 0.039265
0.029855 0.021078 0.040194
0.092896 0.024726 0.044328
0.159466 0.027817 0.047873
0.229319 0.030360 0.050834
0.302134 0.032375 0.053225
0.377519 0.033889 0.055070
0.455023 0.034937 0.056401
0.534155 0.035565 0.057260
0.614402 0.035820 0.057694
0.695248 0.035755 0.057755
0.776196 0.035424 0.057498
0.856790 0.034880 0.056978
0.936628 0.034174 0.056247
0.951169 0.034033 0.056090
0.951169 0.034033 0.056090
0.019875 0.034791 0.042264
0.019875 0.034791 0.042264
0.032590 0.035589 0.043097
0.096213 0.039117 0.046783
0.163305 0.042103 0.049902
0.233621 0.044557 0.052464
0.306835 0.046500 0.054484
0.382552 0.047958 0.055987
0.460323 0.048969 0.057007
0.539655 0.049574 0.057586
0.620037 0.049824 0.057772
0.700957 0.049769 0.057617
0.781921 0.049462 0.057175
0.862478 0.048955 0.056499
0.942229 0.048298 0.055639
0.956546 0.048169 0.055463
0.956546 0.048169 0.055463
0.028720 0.107578 0.052667
0.028720 0.107578 0.052667
0.042022 0.108250 0.053095
0.108323 0.111212 0.054889
0.177815 0.113705 0.056232
0.250235 0.115745 0.057142
0.325247 0.117352 0.057643
0.402448 0.118555 0.057769
0.481387 0.119392 0.057557
0.561574 0.119902 0.057051
0.642508 0.120133 0.056299
0.723691 0.120130 0.055351
0.804648 0.119943 0.054253
0.884950 0.119616 0.053053
0.964224 0.119192 0.051793
0.977282 0.119120 0.051570
0.977282 0.119120 0.051570
0.032377 0.184047 0.057242
0.032377 0.184047 0.057242
0.046217 0.184599 0.057359
0.114960 0.187025 0.057718
0.186618 0.189054 0.057744
0.260914 0.190704 0.057461
0.337503 0.192000 0.056901
0.415978 0.192970 0.056099
0.495885 0.193651 0.055097
0.576743 0.194082 0.053938
0.658061 0.194305 0.052666
0.739358 0.194362 0.051325
0.820181 0.194297 0.049956
0.900124 0.194146 0.048596
0.978843 0.193947 0.047275
0.990342 0.193925 0.047067
0.990342 0.193925 0.047067
0.032324 0.263430 0.057371
0.032324 0.263430 0.057371
0.046649 0.263870 0.057271
0.117579 0.265793 0.056648
0.191153 0.267391 0.055807
0.267085 0.268683 0.054779
0.345021 0.269695 0.053597
0.424552 0.270456 0.052299
0.505227 0.271002 0.050926
0.586575 0.271369 0.049517
0.668120 0.271595 0.048110
0.749399 0.271718 0.046741
0.829986 0.271773 0.045440
0.909502 0.271791 0.044232
0.987634 0.271800 0.043135
0.997268 0.271819 0.042976
0.997268 0.271819 0.042976
0.030077 0.344889 0.054509
0.030077 0.344889 0.054509
0.044830 0.345225 0.054282
0.117675 0.346687 0.053107
0.192903 0.347892 0.051825
0.270219 0.348861 0.050469
0.349266 0.349621 0.049072
0.429634 0.350202 0.047671
0.510883 0.350636 0.046299
0.592553 0.350957 0.044991
0.674187 0.351197 0.043774
0.755349 0.351388 0.042670
0.835642 0.351557 0.041696
0.914721 0.351727 0.040859
0.992314 0.351915 0.040159
0.999784 0.351963 0.040051
0.999784 0.351963 0.040051
0.027107 0.427561 0.050099
0.027107 0.427561 0.050099
0.042227 0.427804 0.049826
0.116699 0.428854 0.048491
0.193306 0.429712 0.047148
0.271747 0.430401 0.045829
0.351665 0.430948 0.044564
0.432659 0.431381 0.043381
0.514300 0.431730 0.042304
0.596148 0.432024 0.041354
0.677774 0.432288 0.040540
0.758777 0.432546 0.039862
0.838808 0.432812 0.039307
0.917593 0.433095 0.038833
0.994889 0.433400 0.038442
0.999896 0.433463 0.038352
0.999896 0.433463 0.038352
0.024724 0.510613 0.045468
0.024724 0.510613 0.045468
0.040148 0.510775 0.045219
0.115944 0.511472 0.044047
0.193642 0.512040 0.042946
0.272942 0.512502 0.041941
0.353495 0.512885 0.041049
0.434911 0.513213 0.040282
0.516786 0.513512 0.039642
0.598716 0.513803 0.039110
0.680326 0.514101 0.038643
0.761240 0.514415 0.038297
0.841080 0.514762 0.038138
0.919497 0.515161 0.038215
0.996191 0.515633 0.038568
0.998395 0.515707 0.038488
0.998395 0.515707 0.038488
0.023942 0.593309 0.041679
0.023942 0.593309 0.041679
0.039599 0.593407 0.041501
0.116392 0.593829 0.040705
0.194873 0.594183 0.040017
0.274749 0.594493 0.039436
0.355684 0.594786 0.038936
0.437327 0.595077 0.038502
0.519325 0.595369 0.038213
0.601275 0.595673 0.038138
0.682755 0.596008 0.038337
0.763342 0.596398 0.038861
0.842639 0.596865 0.039754
0.920283 0.597435 0.041052
0.995084 0.598127 0.042754
0.995081 0.598204 0.042635
0.995081 0.598204 0.042635
0.025246 0.675118 0.039297
0.025246 0.675118 0.039297
0.041050 0.675176 0.039199
0.118421 0.675452 0.038744
0.197318 0.675712 0.038372
0.277523 0.675952 0.038159
0.358726 0.676177 0.038173
0.440557 0.676404 0.038478
0.522597 0.676653 0.039138
0.604402 0.676951 0.040210
0.685520 0.677325 0.041748
0.765507 0.677806 0.043796
0.843951 0.678421 0.046391
0.920484 0.679198 0.049559
0.990615 0.680125 0.053052
0.990611 0.680209 0.052929
0.990611 0.680209 0.052929
0.028355 0.755819 0.038139
0.028355 0.755819 0.038139
0.044267 0.755848 0.038133
0.122179 0.755967 0.038253
0.201598 0.756056 0.038666
0.282235 0.756131 0.039439
0.363733 0.756214 0.040641
0.445678 0.756332 0.042339
0.527620 0.756517 0.044597
0.609088 0.756801 0.047470
0.689607 0.757218 0.051008
0.768721 0.757804 0.055249
0.846011 0.758589 0.060219
0.921106 0.759602 0.065933
0.986088 0.760768 0.071610
0.986084 0.760860 0.071487
0.986084 0.760860 0.071487
0.034652 0.834556 0.039642
0.034652 0.834556 0.039642
0.050722 0.834529 0.039859
0.129336 0.834380 0.041172
0.209331 0.834220 0.042979
0.290379 0.834076 0.045355
0.372088 0.833978 0.048376
0.454015 0.833963 0.052112
0.535681 0.834069 0.056627
0.616595 0.834335 0.061974
0.696267 0.834801 0.068196
0.774232 0.835505 0.075322
0.850066 0.836479 0.083365
0.923404 0.837754 0.092327
0.982859 0.839149 0.100469
0.982857 0.839246 0.100354
0.982857 0.839246 0.100354
0.045988 0.910314 0.045763
0.045988 0.910314 0.045763
0.062223 0.910215 0.046321
0.141547 0.909738 0.049410
0.222074 0.909282 0.053214
0.303444 0.908882 0.057818
0.385234 0.908578 0.063300
0.466975 0.908413 0.069735
0.548165 0.908431 0.077183
0.628294 0.908679 0.085694
0.706862 0.909199 0.095300
0.783398 0.910032 0.106018
0.857479 0.911213 0.117847
0.928744 0.912770 0.130770
0.982400 0.914373 0.141532
0.982402 0.914475 0.141432
0.982402 0.914475 0.141432
0.063976 0.982211 0.058272
0.063976 0.982211 0.058272
0.080370 0.982032 0.059291
0.160346 0.981184 0.064748
0.241310 0.980397 0.071163
0.322874 0.979716 0.078626
0.404586 0.979186 0.087223
0.485952 0.978858 0.097026
0.566450 0.978784 0.108093
0.645556 0.979014 0.120464
0.722760 0.979594 0.134161
0.797589 0.980568 0.149184
0.869623 0.981969 0.165513
0.938510 0.983827 0.183113
0.986207 0.985605 0.196499
0.986215 0.985710 0.196422
0.986215 0.985710 0.196422
0.066445 0.988631 0.059572
0.066445 0.988631 0.059572
0.082833 0.988364 0.060616
0.162760 0.987086 0.066190
0.243647 0.985861 0.072706
0.325104 0.984731 0.080248
0.406685 0.983745 0.088896
0.487899 0.982953 0.098714
0.568230 0.982408 0.109754
0.647160 0.982161 0.122052
0.724187 0.982259 0.135620
0.798846 0.982744 0.150454
0.870726 0.983653 0.166530
0.939483 0.985014 0.183810
0.986263 0.986263 0.196532
0.986262 0.986262 0.196353
0.986262 0.986262 0.196353
0.066445 0.988631 0.059572
0.066445 0.988631 0.059572
0.082833 0.988364 0.060616
0.162760 0.987086 0.066190
0.243647 0.985861 0.072706
0.325104 0.984731 0.080248
0.406685 0.983745 0.088896
0.487899 0.982953 0.098714
0.568230 0.982408 0.109754
0.647160 0.982161 0.122052
0.724187 0.982259 0.135620
0.798846 0.982744 0.150454
0.870726 0.983653 0.166530
0.939483 0.985014 0.183810
0.986263 0.986263 0.196532
0.986262 0.986262 0.196353
0.986262 0.986262 0.196353
0.018580 0.021590 0.097770
0.018580 0.021590 0.097770
0.031230 0.022370 0.098964
0.094557 0.025809 0.104360
0.161383 0.028703 0.109131
0.231464 0.031063 0.113277
0.304475 0.032909 0.116808
0.380024 0.034269 0.119741
0.457659 0.035179 0.122105
0.536890 0.035683 0.123936
0.617204 0.035831 0.125281
0.698087 0.035674 0.126189
0.779044 0.035267 0.126716
0.859621 0.034661 0.126915
