frontend/public/luts/film-print.cube
# Film print emulation — authored for Vijey Textile / Ammalu Tex
# Lifted cool toe, filmic S-curve, warm shoulder, chroma falloff at extremes.
LUT_3D_SIZE 5
DOMAIN_MIN 0.0 0.0 0.0
DOMAIN_MAX 1.0 1.0 1.0
0.016990 0.019971 0.027424
0.159064 0.027628 0.035457
0.454473 0.034883 0.043055
0.775602 0.035453 0.043414
0.950608 0.034087 0.041691
0.032345 0.183857 0.043697
0.186489 0.188931 0.043810
0.495652 0.193615 0.040564
0.819933 0.194304 0.034994
0.990147 0.193940 0.031943
0.024758 0.510557 0.030267
0.193629 0.512005 0.027641
0.516740 0.513493 0.024234
0.841043 0.514738 0.022710
0.998442 0.515672 0.023064
0.034484 0.834565 0.024230
0.209133 0.834230 0.027608
0.535483 0.834058 0.041423
0.849957 0.836405 0.068464
0.982899 0.839130 0.085650
0.065987 0.988721 0.044414
0.243169 0.985940 0.057702
0.567784 0.982435 0.095155
0.870421 0.983579 0.152498
0.986133 0.986133 0.182631
0.019842 0.022876 0.158324
0.163256 0.029543 0.172389
0.460254 0.035383 0.189713
0.781848 0.035085 0.197736
0.956477 0.033465 0.199254
0.032611 0.185799 0.192422
0.187797 0.190176 0.196583
0.498078 0.193952 0.199500
0.822507 0.194204 0.198296
0.992132 0.193776 0.196854
0.024428 0.511123 0.195935
0.193785 0.512353 0.194313
0.517244 0.513697 0.191827
0.841428 0.515019 0.190423
0.997892 0.516086 0.190646
0.036431 0.834461 0.191616
0.211394 0.834122 0.194412
0.537744 0.834217 0.206134
0.851216 0.837287 0.229555
0.982501 0.840487 0.244463
0.071164 0.987755 0.208590
0.248559 0.985107 0.220042
0.572800 0.982213 0.252759
0.873884 0.984501 0.303557
0.987666 0.987666 0.330176
0.024303 0.027420 0.417527
0.170165 0.032374 0.441701
0.470030 0.035817 0.475078
0.792404 0.034126 0.495421
0.966256 0.032145 0.501983
0.032692 0.188795 0.481146
0.189764 0.191999 0.491811
0.502033 0.194300 0.504351
0.826670 0.193933 0.509581
0.995140 0.193471 0.510329
0.024025 0.511968 0.510392
0.194213 0.512885 0.509941
0.518227 0.514091 0.508182
0.842066 0.515665 0.506315
0.996644 0.517064 0.505719
0.040832 0.834242 0.505854
0.216379 0.833978 0.506746
0.542650 0.834783 0.512759
0.854081 0.839463 0.527334
0.982154 0.843659 0.537067
0.082156 0.986027 0.513978
0.259913 0.983745 0.520948
0.583329 0.982250 0.542650
0.881312 0.986977 0.578833
0.991382 0.991382 0.598009
0.027670 0.030844 0.691252
0.175875 0.034284 0.723909
0.478435 0.035677 0.770419
0.801470 0.032905 0.800378
0.974462 0.030709 0.810644
0.032316 0.191016 0.779162
0.191170 0.193225 0.794898
0.505268 0.194353 0.814548
0.830028 0.193618 0.823991
0.997293 0.193224 0.825916
0.023938 0.512592 0.826428
0.194839 0.513314 0.826329
0.519275 0.514519 0.824341
0.842615 0.516524 0.820710
0.995155 0.518369 0.818451
0.046297 0.834049 0.817054
0.222411 0.833983 0.814889
0.548490 0.835778 0.812738
0.857684 0.842408 0.815694
0.982433 0.847733 0.819096
0.094860 0.984502 0.812444
0.272925 0.982744 0.813536
0.595354 0.982980 0.821397
0.890009 0.990522 0.839908
0.996281 0.996281 0.850605
0.029055 0.032248 0.841631
0.178458 0.034964 0.878140
0.482379 0.035409 0.930463
0.805716 0.032184 0.964464
0.978221 0.029931 0.976178
0.031967 0.191919 0.940356
0.191723 0.193668 0.958221
0.506728 0.194293 0.980668
0.831521 0.193457 0.991505
0.998131 0.193135 0.993686
0.024029 0.512860 0.994245
0.195255 0.513521 0.994065
0.519870 0.514775 0.991610
0.842884 0.517093 0.986383
0.994284 0.519223 0.982865
0.049671 0.833983 0.980340
0.226077 0.834075 0.976050
0.552005 0.836516 0.968517
0.859931 0.844323 0.964141
0.982877 0.850298 0.963719
0.102335 0.983809 0.967324
0.280539 0.982396 0.964710
0.602376 0.983690 0.964048
0.895173 0.992881 0.971917
0.999400 0.999400 0.977713
