frontend/public/luts/film-print.cube
# Film print emulation — authored for Vijey Textile / Ammalu Tex
# Lifted cool toe, filmic S-curve, warm shoulder, chroma falloff at extremes.
LUT_3D_SIZE 9
DOMAIN_MIN 0.0 0.0 0.0
DOMAIN_MAX 1.0 1.0 1.0
0.016990 0.019971 0.027424
0.029565 0.020805 0.028298
0.159064 0.027628 0.035457
0.301645 0.032259 0.040323
0.454473 0.034883 0.043055
0.613818 0.035813 0.043952
0.775602 0.035453 0.043414
0.936046 0.034227 0.041872
0.950608 0.034087 0.041691
0.019628 0.034518 0.030240
0.032330 0.035325 0.031019
0.162936 0.041920 0.037321
0.306381 0.046388 0.041433
0.459810 0.048916 0.043528
0.619491 0.049817 0.043913
0.781367 0.049489 0.042988
0.941687 0.048347 0.041175
0.956027 0.048220 0.040976
0.032345 0.183857 0.043697
0.046175 0.184417 0.043777
0.186489 0.188931 0.043810
0.337311 0.191926 0.042648
0.495652 0.193615 0.040564
0.657810 0.194296 0.037896
0.819933 0.194304 0.034994
0.978615 0.193961 0.032161
0.990147 0.193940 0.031943
0.030132 0.344773 0.039910
0.044878 0.345114 0.039659
0.192887 0.347819 0.036990
0.349205 0.349578 0.034056
0.510799 0.350612 0.031137
0.674098 0.351183 0.028501
0.835561 0.351546 0.026347
0.992250 0.351901 0.024763
0.999765 0.351949 0.024653
0.024758 0.510557 0.030267
0.040176 0.510722 0.030007
0.193629 0.512005 0.027641
0.353458 0.512862 0.025678
0.516740 0.513493 0.024234
0.680279 0.514081 0.023224
0.841043 0.514738 0.022710
0.996181 0.515598 0.023143
0.998442 0.515672 0.023064
0.025202 0.675098 0.023884
0.041005 0.675157 0.023784
0.197259 0.675696 0.022948
0.358653 0.676162 0.022744
0.522521 0.676636 0.023720
0.685457 0.677298 0.026362
0.843922 0.678375 0.031063
0.990706 0.680053 0.037811
0.990702 0.680138 0.037688
0.034484 0.834565 0.024230
0.050550 0.834538 0.024450
0.209133 0.834230 0.027608
0.371880 0.833982 0.033073
0.535483 0.834058 0.041423
0.696101 0.834764 0.053127
0.849957 0.836405 0.068464
0.982901 0.839033 0.085764
0.982899 0.839130 0.085650
0.063528 0.982272 0.043088
0.079919 0.982092 0.044119
0.240838 0.980447 0.056127
0.404115 0.979215 0.072364
0.566006 0.978781 0.093454
0.722370 0.979545 0.119785
0.869316 0.981862 0.151439
0.986075 0.985441 0.182739
0.986083 0.985545 0.182663
0.065987 0.988721 0.044414
0.082372 0.988453 0.045470
0.243169 0.985940 0.057702
0.406211 0.983804 0.074072
0.567784 0.982435 0.095155
0.723798 0.982241 0.121285
0.870421 0.983579 0.152498
0.986134 0.986134 0.182811
0.986133 0.986133 0.182631
0.017268 0.020253 0.039265
0.029855 0.021078 0.040194
0.159466 0.027817 0.047873
0.302134 0.032375 0.053225
0.455023 0.034937 0.056401
0.614402 0.035820 0.057694
0.776196 0.035424 0.057498
0.936628 0.034174 0.056247
0.951169 0.034033 0.056090
0.019875 0.034791 0.042264
0.032590 0.035589 0.043097
0.163305 0.042103 0.049902
0.306835 0.046500 0.054484
0.460323 0.048969 0.057007
0.620037 0.049824 0.057772
0.781921 0.049462 0.057175
0.942229 0.048298 0.055639
0.956546 0.048169 0.055463
0.032377 0.184047 0.057242
0.046217 0.184599 0.057359
0.186618 0.189054 0.057744
0.337503 0.192000 0.056901
0.495885 0.193651 0.055097
0.658061 0.194305 0.052666
0.820181 0.194297 0.049956
0.978843 0.193947 0.047275
0.990342 0.193925 0.047067
0.030077 0.344889 0.054509
0.044830 0.345225 0.054282
0.192903 0.347892 0.051825
0.349266 0.349621 0.049072
0.510883 0.350636 0.046299
0.674187 0.351197 0.043774
0.835642 0.351557 0.041696
0.992314 0.351915 0.040159
0.999784 0.351963 0.040051
0.024724 0.510613 0.045468
0.040148 0.510775 0.045219
0.193642 0.512040 0.042946
0.353495 0.512885 0.041049
0.516786 0.513512 0.039642
0.680326 0.514101 0.038643
0.841080 0.514762 0.038138
0.996191 0.515633 0.038568
0.998395 0.515707 0.038488
0.025246 0.675118 0.039297
0.041050 0.675176 0.039199
0.197318 0.675712 0.038372
0.358726 0.676177 0.038173
0.522597 0.676653 0.039138
0.685520 0.677325 0.041748
0.843951 0.678421 0.046391
0.990615 0.680125 0.053052
0.990611 0.680209 0.052929
0.034652 0.834556 0.039642
0.050722 0.834529 0.039859
0.209331 0.834220 0.042979
0.372088 0.833978 0.048376
0.535681 0.834069 0.056627
0.696267 0.834801 0.068196
0.850066 0.836479 0.083365
0.982859 0.839149 0.100469
0.982857 0.839246 0.100354
0.063976 0.982211 0.058272
0.080370 0.982032 0.059291
0.241310 0.980397 0.071163
0.404586 0.979186 0.087223
0.566450 0.978784 0.108093
0.722760 0.979594 0.134161
0.869623 0.981969 0.165513
0.986207 0.985605 0.196499
0.986215 0.985710 0.196422
0.066445 0.988631 0.059572
0.082833 0.988364 0.060616
0.243647 0.985861 0.072706
0.406685 0.983745 0.088896
0.568230 0.982408 0.109754
0.724187 0.982259 0.135620
0.870726 0.983653 0.166530
0.986263 0.986263 0.196532
0.986262 0.986262 0.196353
0.019842 0.022876 0.158324
0.032555 0.023612 0.159778
0.163256 0.029543 0.172389
0.306775 0.033401 0.182345
0.460254 0.035383 0.189713
0.619965 0.035811 0.194722
0.781848 0.035085 0.197736
0.942157 0.033618 0.199189
0.956477 0.033465 0.199254
0.022162 0.037328 0.163064
0.035000 0.038040 0.164407
0.166784 0.043769 0.175988
0.311142 0.047488 0.185015
0.465201 0.049399 0.191574
0.625231 0.049820 0.195906
0.787190 0.049146 0.198375
0.947366 0.047782 0.199410
0.961452 0.047643 0.199441
0.032611 0.185799 0.192422
0.046551 0.186287 0.192897
0.187797 0.190176 0.196583
0.339306 0.192657 0.198713
0.498078 0.193952 0.199500
0.660420 0.194358 0.199247
0.822507 0.194204 0.198296
0.980976 0.193797 0.196975
0.992132 0.193776 0.196854
0.029521 0.345951 0.199521
0.044349 0.346245 0.199512
0.193042 0.348552 0.199006
0.349826 0.350012 0.197894
0.511668 0.350852 0.196427
0.675021 0.351324 0.194867
0.836389 0.351669 0.193434
0.992900 0.352061 0.192260
0.999921 0.352111 0.192163
0.024428 0.511123 0.195935
0.039901 0.511263 0.195784
0.193785 0.512353 0.194313
0.353864 0.513100 0.192955
0.517244 0.513697 0.191827
0.680793 0.514301 0.190902
0.841428 0.515019 0.190423
0.996256 0.516010 0.190739
0.997892 0.516086 0.190646
0.025704 0.675308 0.191516
0.041520 0.675364 0.191422
0.197947 0.675871 0.190652
0.359494 0.676321 0.190434
0.523388 0.676836 0.191200
0.686166 0.677621 0.193374
0.844253 0.678915 0.197314
0.989711 0.680891 0.202997
0.989707 0.680977 0.202870
0.036431 0.834461 0.191616
0.052533 0.834430 0.191795
0.211394 0.834122 0.194412
0.374250 0.833957 0.199014
0.537744 0.834217 0.206134
0.697997 0.835225 0.216218
0.851216 0.837287 0.229555
0.982502 0.840388 0.244583
0.982501 0.840487 0.244463
0.068600 0.981625 0.207562
0.085025 0.981452 0.208447
0.246162 0.979936 0.218818
0.409422 0.978950 0.232963
0.571016 0.978893 0.251481
0.726777 0.980174 0.274766
0.872804 0.983146 0.302938
0.987640 0.987362 0.330677
0.987650 0.987468 0.330594
0.071164 0.987755 0.208590
0.087580 0.987494 0.209496
0.248559 0.985107 0.220042
0.411551 0.983212 0.234280
0.572800 0.982213 0.252759
0.728190 0.982525 0.275826
0.873884 0.984501 0.303557
0.987668 0.987668 0.330354
0.987666 0.987666 0.330176
0.022199 0.025278 0.284968
0.035039 0.025926 0.286926
0.166841 0.031070 0.304254
0.311213 0.034250 0.318585
0.465283 0.035677 0.329911
0.625317 0.035677 0.338401
0.787278 0.034648 0.344390
0.947452 0.032992 0.348321
0.961533 0.032830 0.348582
0.024239 0.039650 0.291378
0.037201 0.040277 0.293208
0.170062 0.045242 0.309346
0.315252 0.048306 0.322590
0.469882 0.049683 0.332951
0.630219 0.049697 0.340612
0.792244 0.048739 0.345914
0.952275 0.047202 0.349294
0.966110 0.047055 0.349507
0.032715 0.187389 0.334373
0.046755 0.187816 0.335184
0.188850 0.191162 0.341943
0.340980 0.193203 0.346813
0.500137 0.194167 0.349956
0.662637 0.194353 0.351648
0.824680 0.194080 0.352231
0.982946 0.193639 0.352063
0.993739 0.193621 0.352010
0.028931 0.346905 0.350524
0.043834 0.347159 0.350711
0.193145 0.349129 0.351934
0.350343 0.350346 0.352242
0.512402 0.351035 0.351866
0.675796 0.351443 0.351069
0.837074 0.351791 0.350101
0.993439 0.352229 0.349141
0.999987 0.352283 0.349048
0.024191 0.511575 0.351648
0.039713 0.511694 0.351574
0.193974 0.512634 0.350719
0.354266 0.513305 0.349729
0.517725 0.513890 0.348738
0.681269 0.514520 0.347820
0.841758 0.515318 0.347235
0.996266 0.516459 0.347256
0.997306 0.516535 0.347150
0.026222 0.675497 0.348431
0.042056 0.675550 0.348339
0.198679 0.676025 0.347549
0.360372 0.676475 0.347158
0.524281 0.677053 0.347521
0.686892 0.677983 0.349014
0.844601 0.679514 0.351976
0.988785 0.681801 0.356401
0.988780 0.681889 0.356270
0.038489 0.834353 0.347786
0.054625 0.834321 0.347905
0.213743 0.834037 0.349776
0.376693 0.833980 0.353296
0.540068 0.834450 0.358961
0.699957 0.835780 0.367206
0.852552 0.838278 0.378331
0.982258 0.841854 0.390941
0.982258 0.841955 0.390816
0.073756 0.981048 0.360117
0.090212 0.980885 0.360835
0.251542 0.979525 0.369359
0.414771 0.978807 0.381202
0.576068 0.979147 0.396945
0.731238 0.980960 0.416994
0.876375 0.984592 0.441511
0.989380 0.989380 0.465580
0.989377 0.989377 0.465407
0.076411 0.986878 0.360840
0.092854 0.986628 0.361576
0.253992 0.984393 0.370238
0.416920 0.982762 0.382148
0.577844 0.982152 0.397838
0.732622 0.982982 0.417669
0.877417 0.985603 0.441761
0.989371 0.989371 0.464996
0.989369 0.989369 0.464820
0.024303 0.027420 0.417527
0.037269 0.027985 0.419959
0.170165 0.032374 0.441701
0.315382 0.034910 0.460102
0.470030 0.035817 0.475078
0.630377 0.035424 0.486746
0.792404 0.034126 0.495421
0.952430 0.032313 0.501556
0.966256 0.032145 0.501983
0.026073 0.041719 0.425504
0.039159 0.042265 0.427792
0.173091 0.046499 0.448187
0.319104 0.048943 0.465342
0.474292 0.049821 0.479198
0.634925 0.049462 0.489889
0.797003 0.048253 0.497736
0.956878 0.046575 0.503189
0.970446 0.046424 0.503556
0.032692 0.188795 0.481146
0.046831 0.189163 0.482262
0.189764 0.191999 0.491811
0.342503 0.193633 0.499134
0.502033 0.194300 0.504351
0.664679 0.194297 0.507717
0.826670 0.193933 0.509581
0.984727 0.193485 0.510333
0.995140 0.193471 0.510329
0.028325 0.347739 0.505395
0.043303 0.347957 0.505750
0.193216 0.349621 0.508449
0.350816 0.350624 0.509928
0.513079 0.351190 0.510406
0.676506 0.351557 0.510158
0.837697 0.351928 0.509472
0.993941 0.352418 0.508592
1.000000 0.352475 0.508497
0.024025 0.511968 0.510392
0.039594 0.512070 0.510375
0.194213 0.512885 0.509941
0.354699 0.513503 0.509151
0.518227 0.514091 0.508182
0.681749 0.514762 0.507174
0.842066 0.515665 0.506315
0.996220 0.516987 0.505836
0.996644 0.517064 0.505719
0.026824 0.675678 0.507863
0.042681 0.675727 0.507764
0.199525 0.676177 0.506827
0.361366 0.676645 0.506076
0.525281 0.677312 0.505804
0.687703 0.678420 0.506350
0.845004 0.680229 0.508043
0.987859 0.682863 0.510924
0.987855 0.682953 0.510789
0.040832 0.834242 0.505854
0.057003 0.834211 0.505887
0.216379 0.833978 0.506746
0.379412 0.834063 0.508883
0.542650 0.834783 0.512759
0.702147 0.836479 0.518803
0.854081 0.839463 0.527334
0.982154 0.843557 0.537198
0.982154 0.843659 0.537067
0.079420 0.980501 0.513585
0.095907 0.980353 0.514102
0.257423 0.979186 0.520426
0.420603 0.978782 0.529581
0.581576 0.979570 0.542130
0.736121 0.981968 0.558500
0.880324 0.986322 0.578903
0.991394 0.991394 0.598759
0.991391 0.991391 0.598588
0.082156 0.986027 0.513978
0.098626 0.985790 0.514509
0.259913 0.983745 0.520948
0.422759 0.982422 0.530153
0.583329 0.982250 0.542650
0.737461 0.983652 0.558819
0.881312 0.986977 0.578833
0.991385 0.991385 0.598183
0.991382 0.991382 0.598009
0.026128 0.029277 0.553775
0.039218 0.029763 0.556641
0.173185 0.033444 0.582424
0.319224 0.035382 0.604520
0.474429 0.035811 0.622778
0.635072 0.035067 0.637272
0.797151 0.033537 0.648299
0.957021 0.031601 0.656328
0.970580 0.031430 0.656890
0.027646 0.043512 0.563190
0.040854 0.043981 0.565896
0.175832 0.047530 0.590177
0.322644 0.049398 0.610875
0.478371 0.049820 0.627863
0.639283 0.049129 0.641235
0.801400 0.047707 0.651298
0.961111 0.045920 0.658522
0.974400 0.045768 0.659011
0.032553 0.190004 0.630279
0.046788 0.190319 0.631666
0.190536 0.192685 0.643675
0.343862 0.193951 0.653125
0.503746 0.194358 0.660103
0.666525 0.194199 0.664848
0.828455 0.193775 0.667724
0.986303 0.193343 0.669157
0.996324 0.193336 0.669184
0.027725 0.348451 0.661544
0.042773 0.348635 0.662039
0.193266 0.350029 0.665938
0.351246 0.350851 0.668325
0.513698 0.351324 0.669415
0.677151 0.351674 0.669506
0.838261 0.352082 0.668935
0.994423 0.352623 0.668033
0.999978 0.352684 0.667934
0.023940 0.512305 0.669535
0.039553 0.512393 0.669554
0.194503 0.513110 0.669354
0.355160 0.513697 0.668614
0.518745 0.514300 0.667583
0.682230 0.515032 0.666342
0.842352 0.516067 0.665017
0.995924 0.517599 0.663818
0.995921 0.517675 0.663695
0.027524 0.675846 0.667213
0.043407 0.675892 0.667095
0.200488 0.676328 0.665852
0.362476 0.676835 0.664535
0.526383 0.677620 0.663386
0.688599 0.678940 0.662714
0.845467 0.681062 0.662844
0.986961 0.684077 0.663910
0.986956 0.684169 0.663770
0.043445 0.834137 0.663151
0.059650 0.834109 0.663074
0.219280 0.833957 0.662654
0.382387 0.834217 0.663108
0.545469 0.835224 0.664870
0.704551 0.837329 0.668366
0.855798 0.840843 0.673945
0.982208 0.845487 0.680770
0.982209 0.845592 0.680632
0.085531 0.980008 0.665310
0.102047 0.979877 0.665593
0.263738 0.978941 0.669385
0.426854 0.978892 0.675488
0.587481 0.980172 0.684458
0.741373 0.983206 0.696746
0.884613 0.988332 0.712622
0.993709 0.993709 0.728066
0.993706 0.993706 0.727897
0.088336 0.985227 0.665359
0.104832 0.985007 0.665654
0.266256 0.983189 0.669545
0.429001 0.982214 0.675699
0.589195 0.982524 0.684632
0.742653 0.984546 0.696755
0.885529 0.988622 0.712298
0.993698 0.993698 0.727499
0.993695 0.993695 0.727328
0.027670 0.030844 0.691252
0.040879 0.031257 0.694510
0.175875 0.034284 0.723909
0.322700 0.035676 0.749282
0.478435 0.035677 0.770419
0.639352 0.034626 0.787354
0.801470 0.032905 0.800378
0.961178 0.030879 0.809979
0.974462 0.030709 0.810644
0.028954 0.045024 0.701959
0.042279 0.045422 0.705041
0.178263 0.048339 0.732790
0.325840 0.049682 0.756618
0.482077 0.049698 0.776341
0.643247 0.048719 0.792018
0.805391 0.047121 0.803951
0.964933 0.045259 0.812629
0.977936 0.045109 0.813210
0.032316 0.191016 0.779162
0.046644 0.191282 0.780784
0.191170 0.193225 0.794898
0.345053 0.194167 0.806134
0.505268 0.194353 0.814548
0.668163 0.194074 0.820372
0.830028 0.193618 0.823991
0.987670 0.193225 0.825874
0.997293 0.193224 0.825916
0.027147 0.349044 0.816304
0.042263 0.349200 0.816910
0.193303 0.350360 0.821731
0.351638 0.351034 0.824767
0.514261 0.351442 0.826239
0.677733 0.351797 0.826475
0.838772 0.352253 0.825881
0.994859 0.352850 0.824884
0.999904 0.352915 0.824778
0.023938 0.512592 0.826428
0.039591 0.512669 0.826463
0.194839 0.513314 0.826329
0.355638 0.513889 0.825533
0.519275 0.514519 0.824341
0.682710 0.515332 0.822701
0.842615 0.516524 0.820710
0.995158 0.518291 0.818578
0.995155 0.518369 0.818451
0.028328 0.676001 0.823873
0.044239 0.676046 0.823720
0.201562 0.676482 0.821997
0.363693 0.677052 0.819904
0.527581 0.677981 0.817639
0.689575 0.679544 0.815490
0.845993 0.682011 0.813787
0.986114 0.685434 0.812795
0.986110 0.685528 0.812650
0.046297 0.834049 0.817054
0.062536 0.834028 0.816841
0.222411 0.833983 0.814889
0.385578 0.834450 0.813385
0.548490 0.835778 0.812738
0.707141 0.838327 0.813379
0.857684 0.842408 0.815694
0.982431 0.847626 0.819242
0.982433 0.847733 0.819096
0.091999 0.979585 0.812743
0.108544 0.979475 0.812764
0.270395 0.978804 0.813726
0.433431 0.979146 0.816464
0.593696 0.980957 0.821526
0.746920 0.984664 0.829395
0.889153 0.990492 0.840371
0.996297 0.996297 0.851329
0.996293 0.996293 0.851164
0.094860 0.984502 0.812444
0.111380 0.984303 0.812475
0.272925 0.982744 0.813536
0.435553 0.982152 0.816338
0.595354 0.982980 0.821397
0.748121 0.985659 0.829155
0.890009 0.990522 0.839908
0.996284 0.996284 0.850773
0.996281 0.996281 0.850605
0.028939 0.032130 0.827657
0.042261 0.032476 0.831259
0.178232 0.034910 0.863831
0.325800 0.035813 0.892049
0.482030 0.035439 0.915651
0.643197 0.034126 0.934643
0.805341 0.032252 0.949311
0.964885 0.030169 0.960167
0.977892 0.030003 0.960906
0.030011 0.046264 0.839501
0.043446 0.046597 0.842913
0.180383 0.048942 0.873696
0.328682 0.049817 0.900230
0.485395 0.049476 0.922284
0.646801 0.048254 0.939888
0.808959 0.046519 0.953345
0.968331 0.044613 0.963170
0.981045 0.044466 0.963816
0.032003 0.191843 0.925446
0.046418 0.192065 0.927265
0.191677 0.193633 0.943132
0.346081 0.194296 0.955814
0.506600 0.194300 0.965348
0.669598 0.193933 0.971967
0.831391 0.193472 0.976080
0.988835 0.193136 0.978203
0.998062 0.193142 0.978247
0.026610 0.349529 0.967342
0.041789 0.349660 0.968030
0.193337 0.350624 0.973512
0.351997 0.351183 0.976959
0.514772 0.351552 0.978605
0.678259 0.351928 0.978826
0.839245 0.352435 0.978116
0.995233 0.353105 0.976936
0.999770 0.353173 0.976819
0.024017 0.512836 0.978807
0.039706 0.512905 0.978843
0.195215 0.513503 0.978641
0.356125 0.514081 0.977727
0.519814 0.514750 0.976240
0.683185 0.515665 0.974030
0.842859 0.517037 0.971180
0.994370 0.519060 0.967921
0.994366 0.519140 0.967789
0.029233 0.676146 0.975623
0.045173 0.676190 0.975419
0.202739 0.676644 0.973042
0.365003 0.677298 0.969973
0.528861 0.678397 0.966373
0.690621 0.680228 0.962515
0.846580 0.683067 0.958743
0.985340 0.686917 0.955493
0.985336 0.687012 0.955341
0.049346 0.833987 0.965378
0.065618 0.833975 0.965006
0.225726 0.834063 0.961299
0.388938 0.834764 0.957597
0.551668 0.836442 0.954293
0.709880 0.839462 0.951827
0.859714 0.844135 0.950625
0.982824 0.849942 0.950723
0.982827 0.850050 0.950569
0.098724 0.979247 0.953823
0.115295 0.979161 0.953555
0.277291 0.978782 0.951447
0.440232 0.979545 0.950567
0.600126 0.981914 0.951464
0.752676 0.986321 0.954658
0.893823 0.992615 0.960457
0.999116 0.999116 0.966937
0.999111 0.999111 0.966776
0.101626 0.983869 0.953184
0.118168 0.983693 0.952928
0.279817 0.982422 0.950929
0.442314 0.982241 0.950142
0.601711 0.983615 0.951085
0.753782 0.986975 0.954239
0.894682 0.992650 0.959971
0.999101 0.999101 0.966393
0.999097 0.999097 0.966229
0.029055 0.032248 0.841631
0.042389 0.032588 0.845266
0.178458 0.034964 0.878140
0.326100 0.035820 0.906629
0.482379 0.035409 0.930463
0.643570 0.034072 0.949646
0.805716 0.032184 0.964464
0.965243 0.030097 0.975433
0.978221 0.029931 0.976178
0.030107 0.046377 0.853583
0.043553 0.046705 0.857027
0.180586 0.048994 0.888099
0.328956 0.049824 0.914889
0.485717 0.049448 0.937162
0.647145 0.048203 0.954945
0.809305 0.046456 0.968541
0.968659 0.044548 0.978468
0.981342 0.044401 0.979119
0.031967 0.191919 0.940356
0.046391 0.192136 0.942193
0.191723 0.193668 0.958221
0.346178 0.194305 0.971035
0.506728 0.194293 0.980668
0.669735 0.193919 0.987354
0.831521 0.193457 0.991505
0.988945 0.193128 0.993642
0.998131 0.193135 0.993686
0.026557 0.349574 0.982683
0.041742 0.349702 0.983378
0.193341 0.350648 0.988914
0.352032 0.351197 0.992391
0.514823 0.351563 0.994045
0.678310 0.351942 0.994256
0.839293 0.352455 0.993532
0.995268 0.353133 0.992326
0.999753 0.353201 0.992208
0.024029 0.512860 0.994245
0.039721 0.512928 0.994280
0.195255 0.513521 0.994065
0.356176 0.514101 0.993135
0.519870 0.514775 0.991610
0.683234 0.515701 0.989331
0.842884 0.517093 0.986383
0.994288 0.519144 0.982996
0.994284 0.519223 0.982865
0.029332 0.676161 0.990975
0.045275 0.676204 0.990765
0.202866 0.676662 0.988310
0.365143 0.677325 0.985130
0.528997 0.678443 0.981380
0.690732 0.680303 0.977334
0.846644 0.683182 0.973335
0.985264 0.687076 0.969842
0.985261 0.687172 0.969690
0.049671 0.833983 0.980340
0.065946 0.833971 0.979951
0.226077 0.834075 0.976050
0.389294 0.834801 0.972109
0.552005 0.836516 0.968517
0.710170 0.839587 0.965718
0.859931 0.844323 0.964141
0.982874 0.850190 0.963874
0.982877 0.850298 0.963719
0.099430 0.979218 0.967996
0.116004 0.979134 0.967698
0.278014 0.978787 0.965261
0.440945 0.979594 0.963994
0.600799 0.982023 0.964449
0.753280 0.986503 0.967148
0.894314 0.992846 0.972406
0.999419 0.999419 0.978420
0.999414 0.999414 0.978258
0.102335 0.983809 0.967324
0.118880 0.983636 0.967037
0.280539 0.982396 0.964710
0.443021 0.982259 0.963541
0.602376 0.983690 0.964048
0.754376 0.987122 0.966715
0.895173 0.992881 0.971917
0.999404 0.999404 0.977876
0.999400 0.999400 0.977713
